public/Css3.svg

<svg width="50" height="50" viewBox="0 0 50 50" fill="none" xmlns="http://www.w3.org/2000/svg">
<path d="M15.6289 0H20.9997V2.24583H17.8747V4.49167H20.9997V6.7375H15.6289V0ZM22.0726 0H27.4455V1.95417H24.3205V2.34375H27.4455V6.83541H22.0726V4.78541H25.1976V4.39374H22.0726V0ZM28.5205 0H33.8893V1.95417H30.7643V2.34375H33.8893V6.83541H28.5205V4.78541H31.6455V4.39374H28.5205V0Z" fill="#1096E1"/>
<path fill-rule="evenodd" clip-rule="evenodd" d="M24.9812 49.9991L10.5146 45.9824L6.25 9.82617H43.75L39.4876 45.9782L24.9812 49.9991ZM14.6812 26.1929L15.0792 30.6262H30.4479L29.9333 36.3762L24.9876 37.7136H24.9833L20.0458 36.3803L19.7292 32.8449H15.2771L15.8979 39.8074L24.9812 42.3283L34.0791 39.8074L35.1874 27.3824L35.2958 26.1929L36.0959 17.2157H13.8833L14.2875 21.6512H31.2376L30.8333 26.1929H14.6812Z" fill="#1096E1"/>
</svg>

<svg xmlns="http://www.w3.org/2000/svg" width="50" height="50" fill="#1096e1" xmlns:v="https://vecta.io/nano"><path d="M15.629 0H21v2.246h-3.125v2.246H21v2.246h-5.371V0zm6.444 0h5.373v1.954h-3.125v.39h3.125v4.492h-5.373v-2.05h3.125v-.392h-3.125V0zm6.448 0h5.369v1.954h-3.125v.39h3.125v4.492h-5.369v-2.05h3.125v-.392h-3.125V0z"/><path fill-rule="evenodd" d="M24.981 49.999l-14.467-4.017L6.25 9.826h37.5l-4.262 36.152-14.506 4.021zm-10.3-23.806l.398 4.433h15.369l-.515 5.75-4.946 1.337h-.004l-4.937-1.333-.317-3.535h-4.452l.621 6.962 9.083 2.521 9.098-2.521 1.108-12.425.108-1.189.8-8.977H13.883l.404 4.436h16.95l-.404 4.542H14.681z"/></svg>
